src/icons/icons_set_04/041-lit.svg

<?xml version="1.0" encoding="UTF-8"?>
<svg width="50px" height="50px" viewBox="0 0 50 50" version="1.1" xmlns="http://www.w3.org/2000/svg" xmlns:xlink="http://www.w3.org/1999/xlink">
    <!-- Generator: Sketch 52.2 (67145) - http://www.bohemiancoding.com/sketch -->
    <title>041-lit</title>
    <desc>Created with Sketch.</desc>
    <g id="041-lit" stroke="none" stroke-width="1" fill="none" fill-rule="evenodd">
        <g id="Group" transform="translate(8.995000, 19.495595)" fill="#000000" fill-rule="nonzero">
            <g id="000-lit">
                <g id="ICONSET-01">
                    <g id="000-lit">
                        <path d="M5.52500536,0.265657738 L2.90688214,0.265657738 C0.286258333,0.265657738 0.286258333,2.88378095 0.286258333,2.88378095 L0.286258333,5.50440476 L8.14562917,5.50440476 L8.14562917,2.88378095 C8.14562917,0.265657738 5.52500536,0.265657738 5.52500536,0.265657738 Z" id="Shape"></path>
                        <path d="M29.1031179,0.265657738 L13.3843762,0.265657738 C10.766253,0.265657738 10.766253,2.88378095 10.766253,2.88378095 L10.766253,18.6050232 L29.1031179,18.6050232 C31.7237417,18.6050232 31.7237417,15.9843994 31.7237417,15.9843994 L31.7237417,2.88378095 C31.7237417,0.265657738 29.1031179,0.265657738 29.1031179,0.265657738 Z" id="Shape-path"></path>
                    </g>
                </g>
            </g>
        </g>
        <path d="M6,7 L6,43.125" id="Path-6" stroke="#000000" stroke-width="4" stroke-linecap="round" fill-rule="nonzero"></path>
        <path d="M44.25,20 L44.25,43.125" id="Path-6-Copy" stroke="#000000" stroke-width="4" stroke-linecap="round" fill-rule="nonzero"></path>
        <path d="M15.5,29 L6,29" id="Path-7" stroke="#000000" stroke-width="4" stroke-linecap="round" fill-rule="nonzero"></path>
        <path d="M15.5,36.25 L6,36.25" id="Path-7-Copy" stroke="#000000" stroke-width="4" stroke-linecap="round" fill-rule="nonzero"></path>
    </g>
</svg>

<svg height="50" viewBox="0 0 50 50" width="50" xmlns="http://www.w3.org/2000/svg"><g fill="none" fill-rule="nonzero"><g fill="#000" transform="translate(8.995 19.495595)"><path d="m5.52500536.26565774h-2.61812322c-2.62062381 0-2.62062381 2.61812321-2.62062381 2.61812321v2.62062381h7.85937084v-2.62062381c0-2.61812321-2.62062381-2.61812321-2.62062381-2.61812321z"/><path d="m29.1031179.26565774h-15.7187417c-2.6181232 0-2.6181232 2.61812321-2.6181232 2.61812321v15.72124225h18.3368649c2.6206238 0 2.6206238-2.6206238 2.6206238-2.6206238v-13.10061845c0-2.61812321-2.6206238-2.61812321-2.6206238-2.61812321z"/></g><g stroke="#000" stroke-linecap="round" stroke-width="4"><path d="m6 7v36.125"/><path d="m44.25 20v23.125"/><path d="m15.5 29h-9.5"/><path d="m15.5 36.25h-9.5"/></g></g></svg>
